!!!COM:	Hindemith
!!!OTL:	640_Hin-48/7/lignes 1 à 3
**kern	**kern	**dynam
*part2	*part1	*part1
*staff2	*staff1	*
*I"Violoncello	*I"Viola	*
*I'Vc.	*I'Vla.	*
!!pagebreak:original
*clefG2	*clefC3	*
*k[]	*k[]	*
*C:	*C:	*
*M3/8	*M3/8	*
=1	=	=
8gL	8FL	.
(<16cL	8gJ	.
16d)	.	.
(<16e	8r	<
16gJJ)	.	.
=2	=2	=2
*M2/8	*M2/8	*
(<16aLL	4r	.
16g)	.	.
(<16a	.	.
16ccJJ)	.	.
=3	=3	=3
!	!LO:TX:t=arco	!
4cc#X	(<16FLL	.
.	16GJ)	.
.	8A-XJ	.
=4	=4	=4
*M3/8	*M3/8	*
(>8qqdd/	.	.
4cc#X)	8A-XL	.
.	8A-	.
(>8qqdd#X/	.	.
[8cc#)	8A-J	.
=5	=5	=5
.	(<8qqB-X/	[
8cc#]	8A-XL	.
(>8qqee/	.	.
4cc#X)	8G)	.
.	8FJ	.
=6	=6	=6
*M2/4	*M2/4	*
(>8qqff#X/	.	.
4cc#X^)	8r	mf
!	!LO:TX:t=pizz.	!
.	8EL	.
4b^	8d	.
.	8AnJ	.
=7	=7	=7
!!linebreak:original
*M3/8	*M3/8	*
(<8b-XL	8DL	.
8f)	8cJ	.
8a-XJ	8r	.
=8	=8	=8
(<8qqa-X/	.	.
8gL	8C#XL	.
8f)	8BJ	.
8e-XJ	8r	.
=9	=9	=9
8r	8F#XL	.
(<16dLL	8e	.
16f)	.	.
(<16b-X	8BJ	.
16ccJJ)	.	.
=10	=10	=10
*M2/4	*M2/4	*
4cc#X^	8EL	.
.	8dJ	.
4bn^	8r	.
.	8D#X	.
=11	=11	=11
*M3/8	*M3/8	*
(<8b-XL	8c#XL	.
8f)	8r	.
8a-XJ	8cnJ	>
=12	=12	=12
(<8qqa-X/	.	.
8gL	8b-XL	.
8f)	8g	.
8e-XJ	8BnJ	.
=13	=13	=13
!!linebreak:original
8r	8aL	.
(<16dLL	8r	.
16f)	.	.
(<16b-X	8B-XJ	.
16ccJJ)	.	.
=14	=14	=14
*M2/4	*M2/4	*
4cc#X^	8a-X	.
.	8r	.
4bn^	8E-XL	.
.	8d-XJ	.
=15	=15	=15
*M3/8	*M3/8	*
(<8b-XL	8A-XL	.
8f)	8r	.
8a-XJ	8E-XJ	]
=16	=16	=16
(<8qqa-X/	.	.
8gL	8d-XL	.
8f)	8A-XJ	.
8e-XJ	8r	<
=17	=17	=17
8r	8E-X	.
(<16dLL	8r	.
16f)	.	.
(<16b-X	8r	.
16ccJJ)	.	.
=18	=18	=18
*M2/8	*M2/8	*
!	!LO:TX:t=arco	!
(>16cc#XLL	(>16c#XLL	f
16dd#XJ)	16d#XJ)	.
8eeJ	8eJ	.
==	==	==
*-	*-	*-
!!!system-decoration: [(s1,s2)]
!!!YEM:	640_Hin-48/7/lignes 1 à 3
!!!RDF**kern: > = above
!!!RDF**kern: < = below
!!!ONB: Converted from MusicXML on 2020/01/17
